X:257
T:Kaw River
C:
N:Transcribed by Tristan Scroggins Based on Norman Solomon's version from The Solomon Family - Three Generations of Champion Texas Fiddlers
R:bluegrass
L:1/8
Q:1/4=220
M:4/4
K:D
FA zF A3F | A2 FA FD B,D | A,D zF ED dB | AF ED FD B,A, | A6 Bc | dA FD ED B,2 | 
A,C DF ED FB | AF EF D4 | f/a3/2 z4 fa | z2 fa fd BA | a4 af af | bf af ed Bd | 
fa zf a2 af | az fa fd Bd | fa zf af bf | af ef d2 (3ABc | d2 ef d2 ef | d2 =f^f ed (3ABc | 
de fd ed fd | AB AF DF Ac | d2 ef d2 ef | d2 =f^f ed Ac | de fd ed fd | AB AG FD3 | 


